icons/karma.svg

<svg width="16" height="16" viewBox="0 0 16 16" fill="none" xmlns="http://www.w3.org/2000/svg">
<path fill-rule="evenodd" clip-rule="evenodd" d="M6 3H9V5.33333L11 3H14.5L10.8031 7.54999L14.5 13H11L9 9.85714V13H7.75L6 6.23529V3ZM5.10526 7.45833L6.5 13L4 10.5L2.57895 11.8333L1 6L3.52632 8.91667L5.10526 7.45833Z" fill="#30D3BE"/>
</svg>

<svg xmlns="http://www.w3.org/2000/svg" width="16" height="16" fill="none"><path fill="#30D3BE" fill-rule="evenodd" d="M6 3h3v2.333L11 3h3.5l-3.697 4.55L14.5 13H11L9 9.857V13H7.75L6 6.235V3Zm-.895 4.458L6.5 13 4 10.5l-1.421 1.333L1 6l2.526 2.917 1.58-1.459Z" clip-rule="evenodd"/></svg>
